src/topics/icons/dropzone.svg

<svg height="256" preserveAspectRatio="xMidYMid" viewBox="0 0 256 256" width="256" xmlns="http://www.w3.org/2000/svg"><g fill="#028bf4"><path d="m128 42.6666667c-47.1288889 0-85.3333333 38.2044444-85.3333333 85.3333333v85.333333h21.3333333 64c47.128889 0 85.333333-38.204444 85.333333-85.333333 0-47.1288889-38.204444-85.3333333-85.333333-85.3333333zm0 149.3333333h-64v-64c0-35.3457778 28.6542222-64 64-64 35.345778 0 64 28.6542222 64 64 0 35.345778-28.650667 64-64 64z"/><path d="m128 85.3333333c-23.562667 0-42.6666667 19.1039997-42.6666667 42.6666667v42.666667h21.3333337 21.333333c23.562667 0 42.666667-19.104 42.666667-42.666667s-19.104-42.6666667-42.666667-42.6666667zm0 63.9999997h-21.333333v-21.333333c0-11.779556 9.553777-21.333333 21.333333-21.333333s21.333333 9.553777 21.333333 21.333333-9.550222 21.333333-21.333333 21.333333z"/><path d="m128 0h-128v256h128c70.691556 0 128-57.308444 128-128 0-70.6915556-57.308444-128-128-128zm0 234.666667h-106.6666667v-64-42.666667c0-58.9084444 47.7582223-106.6666667 106.6666667-106.6666667 58.908444 0 106.666667 47.7582223 106.666667 106.6666667 0 58.908444-47.754667 106.666667-106.666667 106.666667z"/></g></svg>

<?xml version="1.0" encoding="UTF-8" standalone="no"?>
<svg width="256px" height="256px" viewBox="0 0 256 256" version="1.1" xmlns="http://www.w3.org/2000/svg" xmlns:xlink="http://www.w3.org/1999/xlink" preserveAspectRatio="xMidYMid">
	<g fill="#028BF4">
		<path d="M128,42.6666667 C80.8711111,42.6666667 42.6666667,80.8711111 42.6666667,128 L42.6666667,213.333333 L64,213.333333 L128,213.333333 C175.128889,213.333333 213.333333,175.128889 213.333333,128 C213.333333,80.8711111 175.128889,42.6666667 128,42.6666667 L128,42.6666667 L128,42.6666667 Z M128,192 L64,192 L64,128 C64,92.6542222 92.6542222,64 128,64 C163.345778,64 192,92.6542222 192,128 C192,163.345778 163.349333,192 128,192 L128,192 L128,192 Z"></path>
		<path d="M128,85.3333333 C104.437333,85.3333333 85.3333333,104.437333 85.3333333,128 L85.3333333,170.666667 L106.666667,170.666667 L128,170.666667 C151.562667,170.666667 170.666667,151.562667 170.666667,128 C170.666667,104.437333 151.562667,85.3333333 128,85.3333333 L128,85.3333333 L128,85.3333333 Z M128,149.333333 L106.666667,149.333333 L106.666667,128 C106.666667,116.220444 116.220444,106.666667 128,106.666667 C139.779556,106.666667 149.333333,116.220444 149.333333,128 C149.333333,139.779556 139.783111,149.333333 128,149.333333 L128,149.333333 L128,149.333333 Z"></path>
		<path d="M128,0 L0,0 L0,256 L128,256 C198.691556,256 256,198.691556 256,128 C256,57.3084444 198.691556,0 128,0 L128,0 L128,0 Z M128,234.666667 L21.3333333,234.666667 L21.3333333,170.666667 L21.3333333,128 C21.3333333,69.0915556 69.0915556,21.3333333 128,21.3333333 C186.908444,21.3333333 234.666667,69.0915556 234.666667,128 C234.666667,186.908444 186.912,234.666667 128,234.666667 L128,234.666667 L128,234.666667 Z"></path>
	</g>
</svg>
